X: 305595
M: 6/8
L: 1/8
K: G
|: d |\
g2g gec | c2c c2c | a2a afd | d2d d2d |\
g2g geB | c2c c2A | BGB cAF | G2G G2 :|


